X:1
T:Title
%%score { ( 1 3 ) | 2 }
L:1/8
M:4/4
K:Bb
V:1 treble nm="Grand Piano"
V:3 treble 
V:2 bass 
V:1
 z4 z2[Q:1/4=100] [B,D]>[CE] | [DF]2 [DB]2 [DB]2 D>D | [_DA]2 [DG]2 [=DF]2 [DF]>[DFB] | %3
 A2 G>G F2 E2 | D6 D>[CE] | [DF]2 [Fd]2 [Fd]2 [Fc]>[FB] | [EG]2 [FA]2 [GB]2 [FA]>G | F2 B>B B2 c2 | %8
[M:3/4] [DB]6 |[M:1/4] z2 |[M:4/4] [Fd]2 [Fd]2- [Fd][DF] [Dc]>[DB] | [EB]2 [EA]4 [EF]2 | %12
 [Ae]3 G A2 G2 | F6 z2 | [Fd]2 [Fd]2- [Fd][DB][Ec][Fd] | [Ge]2 [Ge]4 G>G | F2 B>B B2 c2 | %17
[M:3/4] [DB]6 |] %18
V:2
 z4 z2 [B,,F,]>[B,,F,] | [B,,B,]2 [B,,F,]2 [B,,F,]2 [B,,B,]>[B,,F,] | %2
 [B,,=E,]2 [B,,G,]2 [B,,B,]2 [B,,B,]>B,, | [F,CE]2 [F,CE]>[F,CE] [F,B,D]2 [F,C]2 | %4
 [B,,F,B,]6 [B,,F,B,]>[B,,F,] | [B,,B,]2 [B,,B,]2 [B,,B,]2 [C,A,]>[D,B,] | %6
 [E,B,]2 [E,B,]2 [E,E]2 [E,B,]>[E,B,E] | [F,B,D]2 [F,D]>[F,D] [F,CE]2 [F,A,E]2 |[M:3/4] [B,,B,]6 | %9
[M:1/4] [F,F]2 |[M:4/4] [B,,B,]2 [B,,B,]2- [B,,B,][B,,B,] [B,,F,]>[B,,F,] | %11
 [C,F,]2 [F,C]4 [F,A,]2 | [F,C]3 [F,CE] [F,CE]2 [F,A,E]2 | %13
 [B,,B,]>[B,,B,] [C,A,]>[C,A,] [B,,B,]2 [B,,B,]2 | %14
 [B,,B,]2 [B,,B,]2- [B,,B,][B,,B,][B,,B,][B,,B,] | [E,B,]2 [E,B,]4 [=E,B,_D]>[E,B,D] | %16
 [F,B,D]2 [F,DF]>[F,DF] [F,CE]2 [F,A,E]2 |[M:3/4] [B,,B,]6 |] %18
V:3
 x8 | x8 | x8 | x8 | x8 | x8 | x8 | x8 |[M:3/4] x6 |[M:1/4] x2 |[M:4/4] x8 | x8 | x8 | %13
 D>D E>E D2 [DF]2 | x8 | x8 | x8 |[M:3/4] x6 |] %18

